widgets/eBookmark/images/btns/place_with_layer_visibility.svg

<?xml version="1.0" encoding="UTF-8"?>
<svg width="16px" height="16px" viewBox="0 0 16 16" version="1.1" xmlns="http://www.w3.org/2000/svg" xmlns:xlink="http://www.w3.org/1999/xlink">
    <!-- Generator: Sketch 48.2 (47327) - http://www.bohemiancoding.com/sketch -->
    <title>place_with_layer_visibility</title>
    <desc>Created with Sketch.</desc>
    <defs></defs>
    <g id="icons" stroke="none" stroke-width="1" fill="none" fill-rule="evenodd" transform="translate(-1219.000000, -958.000000)">
        <g id="place_with_layer_visibility" transform="translate(1219.000000, 958.000000)" fill="#999999" fill-rule="nonzero">
            <path d="M12.5234175,8.51681299 C11.9757555,8.18864592 11.3349081,8 10.6500001,8 C8.63416071,8 7,9.63416071 7,11.6500001 C7,12.935942 7.66500607,14.0665634 8.66988019,14.7167263 C8.0384024,15.5114945 7.6,16 7.6,16 C7.6,16 2,9.76 2,5.6 C2,2.48 4.48,0 7.6,0 C10.72,0 13.2,2.48 13.2,5.6 C13.2,6.50267072 12.9363304,7.50327586 12.5234175,8.51681299 Z M7.6,7.6 C6.48,7.6 5.6,6.72 5.6,5.6 C5.6,4.48 6.48,3.6 7.6,3.6 C8.72,3.6 9.6,4.48 9.6,5.6 C9.6,6.72 8.72,7.6 7.6,7.6 Z M13.385286,12.0520125 C13.5901906,11.9413114 13.8360763,12.0151122 13.9590191,12.199614 C14.0409809,12.3841159 14,12.6055181 13.7950953,12.7162192 L11.2132964,14.0815328 C11.1313345,14.1184332 11.0903535,14.1184332 11.0083917,14.1184332 C10.9264298,14.1184332 10.8854489,14.1184332 10.803487,14.0815328 L8.22168801,12.7162192 C8.01678333,12.6055181 7.93482146,12.3841159 8.05776427,12.199614 C8.18070708,12.0151122 8.42659269,11.9413114 8.63149737,12.0520125 L11.0083917,13.3066251 L13.385286,12.0520125 Z M8.22168801,10.9741697 C8.0987452,10.9372694 8.01678333,10.7896679 8.05776427,10.6420664 C8.05776427,10.4944649 8.13972614,10.3837638 8.26266895,10.3099631 L10.8444679,9.05535055 C10.9264298,8.98154982 11.0903535,8.98154982 11.2132963,9.05535055 L13.7950953,10.3099631 C13.9180381,10.3837638 14,10.4944649 14,10.6420664 C14,10.7896679 13.9180381,10.900369 13.7950953,10.9741697 L11.2132963,12.3394834 C11.1313345,12.3763838 11.0903535,12.3763838 11.0083917,12.3763838 C10.9264298,12.3763838 10.8854489,12.3763838 10.803487,12.3394834 L8.22168801,10.9741697 Z" id="Shape"></path>
        </g>
    </g>
</svg>

<svg width="16" height="16" xmlns="http://www.w3.org/2000/svg"><path d="M12.523 8.517a3.65 3.65 0 0 0-3.854 6.2C8.04 15.51 7.6 16 7.6 16S2 9.76 2 5.6C2 2.48 4.48 0 7.6 0c3.12 0 5.6 2.48 5.6 5.6 0 .903-.264 1.903-.677 2.917zM7.6 7.6c-1.12 0-2-.88-2-2s.88-2 2-2 2 .88 2 2-.88 2-2 2zm5.785 4.452a.44.44 0 0 1 .574.148c.082.184.041.406-.164.516l-2.582 1.366c-.082.036-.123.036-.205.036-.082 0-.123 0-.205-.036l-2.581-1.366c-.205-.11-.287-.332-.164-.516a.44.44 0 0 1 .573-.148l2.377 1.255 2.377-1.255zm-5.163-1.078c-.123-.037-.205-.184-.164-.332 0-.148.082-.258.205-.332l2.581-1.255c.082-.073.246-.073.37 0l2.581 1.255c.123.074.205.184.205.332 0 .148-.082.258-.205.332l-2.582 1.365a.404.404 0 0 1-.205.037c-.082 0-.123 0-.205-.037l-2.581-1.365z" fill="#999"/></svg>
